screenprofiles/xps15-9550/Y2XND-LQ156D1 #1 2017-11-30 21-27 2.2 F-S XYZLUT+MTX/Y2XND-LQ156D1 #1 2017-11-30 21-27 2.2 F-S XYZLUT+MTX.cal
CAL    

DESCRIPTOR "Argyll Device Calibration Curves"
ORIGINATOR "Argyll dispcal"
CREATED "Thu Nov 30 21:31:46 2017"
DEVICE_CLASS "DISPLAY"
COLOR_REP "RGB"
VIDEO_LUT_CALIBRATION_POSSIBLE "YES"
TV_OUTPUT_ENCODING "NO"
DEVICE_TYPE "n"
NATIVE_TARGET_WHITE ""
TARGET_WHITE_XYZ "357.026219 381.044980 464.132415"
TARGET_GAMMA "2.2"
DEGREE_OF_BLACK_OUTPUT_OFFSET "1.0"
BLACK_POINT_CORRECTION "0.0"
BLACK_NEUTRAL_BLEND_RATE "4.0"
BLACK_POINT_HACK "YES"
QUALITY "low"

BEGIN_ARGYLL_DISPCAL_ARGS
-v2 -d1 -c1 -yn -P0.499507874016,0.497159090909,1.62443845463 -ql -m -t -g2.2 -f1.0 -k0 -A4.0 -b
END_ARGYLL_DISPCAL_ARGS


NUMBER_OF_FIELDS 4
BEGIN_DATA_FORMAT
RGB_I RGB_R RGB_G RGB_B
END_DATA_FORMAT

NUMBER_OF_SETS 256
BEGIN_DATA
0.00000000 0.00000000 0.00000000 0.00000000
0.00392157 0.00582349 0.00541092 0.00515055
0.00784314 0.01152370 0.01072550 0.01021740
0.01176470 0.01710450 0.01594640 0.01520260
0.01568630 0.02256950 0.02107600 0.02010800
0.01960780 0.02792250 0.02611670 0.02493560
0.02352940 0.03316670 0.03107070 0.02968720
0.02745100 0.03830280 0.03593950 0.03436450
0.03137250 0.04332580 0.04072150 0.03896150
0.03529410 0.04823530 0.04541830 0.04347570
0.03921570 0.05303240 0.05003280 0.04792110
0.04313730 0.05772810 0.05456400 0.05230650
0.04705880 0.06233500 0.05901980 0.05664810
0.05098040 0.06687300 0.06340860 0.06095420
0.05490200 0.07136230 0.06774500 0.06522550
0.05882350 0.07581300 0.07205190 0.06947100
0.06274510 0.08022710 0.07634340 0.07370790
0.06666670 0.08460110 0.08062060 0.07794510
0.07058820 0.08893270 0.08488360 0.08217920
0.07450980 0.09322430 0.08912860 0.08640410
0.07843140 0.09748180 0.09335440 0.09061340
0.08235290 0.10170600 0.09756560 0.09480940
0.08627450 0.10589800 0.10176600 0.09899520
0.09019610 0.11005200 0.10595500 0.10316700
0.09411760 0.11416500 0.11012800 0.10731600
0.09803920 0.11823600 0.11428400 0.11143000
0.10196100 0.12225700 0.11842600 0.11550700
0.10588200 0.12622700 0.12254800 0.11954900
0.10980400 0.13014700 0.12664900 0.12356100
0.11372500 0.13401500 0.13072800 0.12754700
0.11764700 0.13782800 0.13478700 0.13151300
0.12156900 0.14158400 0.13881600 0.13546300
0.12549000 0.14529000 0.14281200 0.13939300
0.12941200 0.14896500 0.14678100 0.14330500
0.13333300 0.15261000 0.15072500 0.14721000
0.13725500 0.15623200 0.15464200 0.15111300
0.14117600 0.15983500 0.15853700 0.15501900
0.14509800 0.16342200 0.16241500 0.15893500
0.14902000 0.16699800 0.16627900 0.16286400
0.15294100 0.17058000 0.17013800 0.16680700
0.15686300 0.17417100 0.17399700 0.17077100
0.16078400 0.17777100 0.17785400 0.17475300
0.16470600 0.18138600 0.18171200 0.17874800
0.16862700 0.18501500 0.18557200 0.18275100
0.17254900 0.18865900 0.18943600 0.18675500
0.17647100 0.19232300 0.19331400 0.19076000
0.18039200 0.19601200 0.19721000 0.19476800
0.18431400 0.19973300 0.20112800 0.19877700
0.18823500 0.20349200 0.20507900 0.20279500
0.19215700 0.20729100 0.20906800 0.20682500
0.19607800 0.21113100 0.21309500 0.21087000
0.20000000 0.21501100 0.21716300 0.21493200
0.20392200 0.21893000 0.22127700 0.21901300
0.20784300 0.22289000 0.22543700 0.22311700
0.21176500 0.22688900 0.22963800 0.22724400
0.21568600 0.23092600 0.23387800 0.23139500
0.21960800 0.23499600 0.23815400 0.23556400
0.22352900 0.23909200 0.24246000 0.23974900
0.22745100 0.24320900 0.24679200 0.24394900
0.23137300 0.24734800 0.25115600 0.24815800
0.23529400 0.25151500 0.25553800 0.25237800
0.23921600 0.25569100 0.25992800 0.25660100
0.24313700 0.25986600 0.26432600 0.26082700
0.24705900 0.26404100 0.26873500 0.26505300
0.25098000 0.26821700 0.27314400 0.26928300
0.25490200 0.27239100 0.27755200 0.27351600
0.25882400 0.27656100 0.28196400 0.27775700
0.26274500 0.28073400 0.28638100 0.28201500
0.26666700 0.28491200 0.29078800 0.28629500
0.27058800 0.28909200 0.29516700 0.29058600
0.27451000 0.29325400 0.29952300 0.29488000
0.27843100 0.29739800 0.30385500 0.29918200
0.28235300 0.30153200 0.30816500 0.30348800
0.28627500 0.30565600 0.31245700 0.30779400
0.29019600 0.30977000 0.31673900 0.31210300
0.29411800 0.31388100 0.32101200 0.31641400
0.29803900 0.31799800 0.32527700 0.32072300
0.30196100 0.32212000 0.32953400 0.32502300
0.30588200 0.32624500 0.33378300 0.32931000
0.30980400 0.33037100 0.33802800 0.33358300
0.31372500 0.33450100 0.34226400 0.33784100
0.31764700 0.33864000 0.34649000 0.34207600
0.32156900 0.34277300 0.35070600 0.34628800
0.32549000 0.34690100 0.35491000 0.35048100
0.32941200 0.35102500 0.35910000 0.35466200
0.33333300 0.35514700 0.36328200 0.35883600
0.33725500 0.35926100 0.36745500 0.36301100
0.34117600 0.36336800 0.37161600 0.36718700
0.34509800 0.36746600 0.37577000 0.37136000
0.34902000 0.37155600 0.37991600 0.37553500
0.35294100 0.37564100 0.38405300 0.37971900
0.35686300 0.37972300 0.38818400 0.38391100
0.36078400 0.38379900 0.39230900 0.38810600
0.36470600 0.38786700 0.39643200 0.39230100
0.36862700 0.39192600 0.40055500 0.39649600
0.37254900 0.39597400 0.40466500 0.40069200
0.37647100 0.40001200 0.40875200 0.40487000
0.38039200 0.40403100 0.41281500 0.40901400
0.38431400 0.40801400 0.41685900 0.41312400
0.38823500 0.41195500 0.42088100 0.41720100
0.39215700 0.41585700 0.42487900 0.42124400
0.39607800 0.41972500 0.42884800 0.42524700
0.40000000 0.42355600 0.43279200 0.42920700
0.40392200 0.42734700 0.43671300 0.43313300
0.40784300 0.43110400 0.44060900 0.43702900
0.41176500 0.43484500 0.44448900 0.44089100
0.41568600 0.43857100 0.44834800 0.44472500
0.41960800 0.44229100 0.45218400 0.44853300
0.42352900 0.44600800 0.45599600 0.45231400
0.42745100 0.44971900 0.45978900 0.45607200
0.43137300 0.45342500 0.46356500 0.45981500
0.43529400 0.45712900 0.46732900 0.46354900
0.43921600 0.46083400 0.47109400 0.46727400
0.44313700 0.46454300 0.47486300 0.47099900
0.44705900 0.46826000 0.47864000 0.47472800
0.45098000 0.47199200 0.48243000 0.47846900
0.45490200 0.47573500 0.48623500 0.48222300
0.45882400 0.47949000 0.49005800 0.48598800
0.46274500 0.48325800 0.49389900 0.48976700
0.46666700 0.48703600 0.49775700 0.49356000
0.47058800 0.49082600 0.50163500 0.49736700
0.47451000 0.49462600 0.50552500 0.50119000
0.47843100 0.49843800 0.50942500 0.50502600
0.48235300 0.50227300 0.51333600 0.50887100
0.48627500 0.50611800 0.51725800 0.51272600
0.49019600 0.50997000 0.52118900 0.51659000
0.49411800 0.51382900 0.52512600 0.52046400
0.49803900 0.51769600 0.52906300 0.52434500
0.50196100 0.52157100 0.53299700 0.52823500
0.50588200 0.52545400 0.53692700 0.53212700
0.50980400 0.52934700 0.54084600 0.53601700
0.51372500 0.53324800 0.54475300 0.53990000
0.51764700 0.53716100 0.54865000 0.54377300
0.52156900 0.54107900 0.55253600 0.54763600
0.52549000 0.54499700 0.55641400 0.55148700
0.52941200 0.54891400 0.56028500 0.55533200
0.53333300 0.55283100 0.56415300 0.55917600
0.53725500 0.55675000 0.56802700 0.56301800
0.54117600 0.56067000 0.57190800 0.56685900
0.54509800 0.56459100 0.57578200 0.57070000
0.54902000 0.56852400 0.57963700 0.57453700
0.55294100 0.57246700 0.58347300 0.57835700
0.55686300 0.57640700 0.58729000 0.58216400
0.56078400 0.58033300 0.59108400 0.58596200
0.56470600 0.58424700 0.59485200 0.58974700
0.56862700 0.58814800 0.59859000 0.59351800
0.57254900 0.59203000 0.60230400 0.59727400
0.57647100 0.59588900 0.60600600 0.60101800
0.58039200 0.59972400 0.60969700 0.60475500
0.58431400 0.60354600 0.61337600 0.60848700
0.58823500 0.60736000 0.61704700 0.61221000
0.59215700 0.61116500 0.62071000 0.61592300
0.59607800 0.61496500 0.62436600 0.61962700
0.60000000 0.61876100 0.62801400 0.62332400
0.60392200 0.62256000 0.63165400 0.62702000
0.60784300 0.62636000 0.63528600 0.63071900
0.61176500 0.63016200 0.63890600 0.63442000
0.61568600 0.63396300 0.64251700 0.63811500
0.61960800 0.63775900 0.64612200 0.64180800
0.62352900 0.64155300 0.64972700 0.64549700
0.62745100 0.64534600 0.65333500 0.64918700
0.63137300 0.64914100 0.65694600 0.65287900
0.63529400 0.65294500 0.66056000 0.65658100
0.63921600 0.65676100 0.66417500 0.66029300
0.64313700 0.66058600 0.66779200 0.66401200
0.64705900 0.66442100 0.67139700 0.66774000
0.65098000 0.66826400 0.67498500 0.67146000
0.65490200 0.67209800 0.67855600 0.67516400
0.65882400 0.67591100 0.68211200 0.67885500
0.66274500 0.67970400 0.68565100 0.68253000
0.66666700 0.68347600 0.68917700 0.68619400
0.67058800 0.68722500 0.69269800 0.68985300
0.67451000 0.69096100 0.69621700 0.69351300
0.67843100 0.69468900 0.69973200 0.69717300
0.68235300 0.69840800 0.70324200 0.70083100
0.68627500 0.70211700 0.70674600 0.70448000
0.69019600 0.70581600 0.71024400 0.70812000
0.69411800 0.70949900 0.71373600 0.71175100
0.69803900 0.71316300 0.71722500 0.71538000
0.70196100 0.71681600 0.72071300 0.71901200
0.70588200 0.72047300 0.72420100 0.72265100
0.70980400 0.72413400 0.72768900 0.72629200
0.71372500 0.72780000 0.73117600 0.72993200
0.71764700 0.73147100 0.73466400 0.73356600
0.72156900 0.73514600 0.73816200 0.73720100
0.72549000 0.73883300 0.74167100 0.74083900
0.72941200 0.74252900 0.74519000 0.74447900
0.73333300 0.74623500 0.74872000 0.74812200
0.73725500 0.74995200 0.75225800 0.75176800
0.74117600 0.75367300 0.75579500 0.75541200
0.74509800 0.75739000 0.75933100 0.75905400
0.74902000 0.76110200 0.76286500 0.76269700
0.75294100 0.76481000 0.76640000 0.76634400
0.75686300 0.76851800 0.76993800 0.76999100
0.76078400 0.77223000 0.77348100 0.77363700
0.76470600 0.77595000 0.77702800 0.77728200
0.76862700 0.77967700 0.78057900 0.78092700
0.77254900 0.78340800 0.78413600 0.78457000
0.77647100 0.78714500 0.78769800 0.78821200
0.78039200 0.79088800 0.79127100 0.79185800
0.78431400 0.79464200 0.79485800 0.79551500
0.78823500 0.79840500 0.79846100 0.79918400
0.79215700 0.80217500 0.80207500 0.80285700
0.79607800 0.80593100 0.80568800 0.80651600
0.80000000 0.80967100 0.80929800 0.81016000
0.80392200 0.81339400 0.81290200 0.81379200
0.80784300 0.81710900 0.81650400 0.81741500
0.81176500 0.82082200 0.82010900 0.82103500
0.81568600 0.82453500 0.82371800 0.82465500
0.81960800 0.82824400 0.82733300 0.82827400
0.82352900 0.83194500 0.83095300 0.83189900
0.82745100 0.83564500 0.83458100 0.83553200
0.83137300 0.83936000 0.83822600 0.83917500
0.83529400 0.84309200 0.84188900 0.84282900
0.83921600 0.84683700 0.84556700 0.84649300
0.84313700 0.85059200 0.84925900 0.85016100
0.84705900 0.85435700 0.85296200 0.85383600
0.85098000 0.85813100 0.85668000 0.85752000
0.85490200 0.86190000 0.86040500 0.86120600
0.85882400 0.86565500 0.86412000 0.86488600
0.86274500 0.86939700 0.86782300 0.86855800
0.86666700 0.87313500 0.87152600 0.87223100
0.87058800 0.87686800 0.87523200 0.87590500
0.87451000 0.88059700 0.87894100 0.87958500
0.87843100 0.88432200 0.88265300 0.88327100
0.88235300 0.88804900 0.88637100 0.88696100
0.88627500 0.89177700 0.89009600 0.89065500
0.89019600 0.89550400 0.89382200 0.89435100
0.89411800 0.89923200 0.89755200 0.89805300
0.89803900 0.90296400 0.90129000 0.90176600
0.90196100 0.90669700 0.90503400 0.90548700
0.90588200 0.91043200 0.90878400 0.90921500
0.90980400 0.91416900 0.91253700 0.91294800
0.91372500 0.91790400 0.91629400 0.91668400
0.91764700 0.92163600 0.92005400 0.92042200
0.92156900 0.92536500 0.92381400 0.92416200
0.92549000 0.92909600 0.92757600 0.92790700
0.92941200 0.93282800 0.93134300 0.93165700
0.93333300 0.93655900 0.93511900 0.93541500
0.93725500 0.94028800 0.93889500 0.93917400
0.94117600 0.94402100 0.94267800 0.94293800
0.94509800 0.94775400 0.94646600 0.94670900
0.94902000 0.95148700 0.95026000 0.95048500
0.95294100 0.95521900 0.95405800 0.95426500
0.95686300 0.95895200 0.95786100 0.95805000
0.96078400 0.96268600 0.96166900 0.96184000
0.96470600 0.96641900 0.96548300 0.96563600
0.96862700 0.97015300 0.96930100 0.96943700
0.97254900 0.97388600 0.97312400 0.97324300
0.97647100 0.97761900 0.97695200 0.97705300
0.98039200 0.98135100 0.98078300 0.98086700
0.98431400 0.98508200 0.98461800 0.98468500
0.98823500 0.98881200 0.98845700 0.98850700
0.99215700 0.99254200 0.99230100 0.99233400
0.99607800 0.99627100 0.99614800 0.99616500
1.00000000 1.00000000 1.00000000 1.00000000
END_DATA
CAL    

DESCRIPTOR "Argyll Calibration options and model"
ORIGINATOR "Argyll dispcal"
CREATED "Thu Nov 30 21:31:46 201"

NUMBER_OF_FIELDS 3
BEGIN_DATA_FORMAT
R_P G_P B_P
END_DATA_FORMAT

NUMBER_OF_SETS 32
BEGIN_DATA
0.000597316 0.000657076 0.000801500
0.999403000 0.999343000 0.999198000
1.693121000 1.809178000 2.068051000
0.565839000 0.560877000 0.308290000
0.169945000 0.165434000 0.222807000
0.102904000 0.089492800 0.131664000
0.087289100 0.099020200 0.112559000
0.119464000 0.131966000 0.070954700
0.080077500 0.045280800 0.077700300
0.078565000 0.063087000 0.097054300
0.081929000 0.092169100 0.048683300
0.048387600 0.038540900 0.043386600
0.067107300 0.048697700 0.069185900
0.065816300 0.063159300 0.063748000
0.063018000 0.053730800 0.040532300
0.052967100 0.062221300 0.065848700
0.045979400 0.043268800 0.042130800
0.048756900 0.043818700 0.041988600
0.055632900 0.062787500 0.064192600
0.052302600 0.042391100 0.032523100
0.043228300 0.039198000 0.032502000
0.046161400 0.043183700 0.052564000
0.043783100 0.041154800 0.045395400
0.036678100 0.045403300 0.042848200
0.035969500 0.038375100 0.043755600
0.038373300 0.033682200 0.038250200
0.039555800 0.047484500 0.044296600
0.035821800 0.034386900 0.042205200
0.032816000 0.034579600 0.030934300
0.034733100 0.039333900 0.041537300
0.033457100 0.036028700 0.045755600
0.036976300 0.039187800 0.035275500
END_DATA