screenprofiles/xps15-9550/Y2XND-LQ156D1 #1 2017-11-30 21-37 D6500 2.2 S XYZLUT+MTX/Y2XND-LQ156D1 #1 2017-11-30 21-37 D6500 2.2 S XYZLUT+MTX.cal
CAL    

DESCRIPTOR "Argyll Device Calibration Curves"
ORIGINATOR "Argyll dispcal"
CREATED "Thu Nov 30 21:54:18 2017"
DEVICE_CLASS "DISPLAY"
COLOR_REP "RGB"
VIDEO_LUT_CALIBRATION_POSSIBLE "YES"
TV_OUTPUT_ENCODING "NO"
DEVICE_TYPE "n"
TARGET_WHITE_XYZ "337.825777 355.544683 386.645447"
TARGET_GAMMA "2.2"
DEGREE_OF_BLACK_OUTPUT_OFFSET "1.0"
BLACK_POINT_CORRECTION "0.0"
BLACK_NEUTRAL_BLEND_RATE "4.0"
BLACK_POINT_HACK "YES"
QUALITY "high"

BEGIN_ARGYLL_DISPCAL_ARGS
-v2 -d1 -c1 -yn -P0.499507874016,0.497159090909,1.62443845463 -qh -m -t6500 -g2.2 -f1.0 -k0 -A4.0 -b
END_ARGYLL_DISPCAL_ARGS


NUMBER_OF_FIELDS 4
BEGIN_DATA_FORMAT
RGB_I RGB_R RGB_G RGB_B
END_DATA_FORMAT

NUMBER_OF_SETS 256
BEGIN_DATA
0.00000000 0.00000000 0.00000000 0.00000000
0.00392157 0.00595667 0.00524578 0.00478585
0.00784314 0.01177260 0.01037870 0.00949115
0.01176470 0.01745280 0.01540240 0.01411790
0.01568630 0.02300180 0.02032030 0.01866810
0.01960780 0.02842430 0.02513560 0.02314360
0.02352940 0.03372440 0.02985170 0.02754630
0.02745100 0.03890040 0.03447110 0.03187780
0.03137250 0.04394000 0.03899300 0.03613890
0.03529410 0.04884160 0.04342020 0.04032660
0.03921570 0.05361050 0.04775800 0.04443840
0.04313730 0.05825450 0.05201430 0.04847550
0.04705880 0.06278350 0.05620030 0.05244290
0.05098040 0.06720930 0.06032920 0.05635250
0.05490200 0.07154250 0.06441100 0.06021310
0.05882350 0.07580040 0.06845420 0.06403260
0.06274510 0.08000090 0.07246980 0.06781980
0.06666670 0.08415530 0.07646620 0.07158380
0.07058820 0.08827280 0.08044720 0.07533240
0.07450980 0.09236030 0.08441760 0.07907220
0.07843140 0.09642550 0.08838160 0.08280950
0.08235290 0.10047200 0.09234400 0.08654890
0.08627450 0.10450300 0.09630410 0.09029440
0.09019610 0.10851600 0.10026600 0.09404790
0.09411760 0.11251100 0.10422900 0.09781340
0.09803920 0.11648700 0.10818800 0.10158700
0.10196100 0.12044300 0.11214200 0.10536800
0.10588200 0.12437700 0.11608900 0.10915300
0.10980400 0.12829500 0.12002600 0.11293600
0.11372500 0.13219500 0.12395800 0.11671600
0.11764700 0.13607600 0.12788300 0.12049200
0.12156900 0.13993900 0.13180200 0.12426400
0.12549000 0.14379400 0.13571100 0.12802600
0.12941200 0.14765000 0.13961800 0.13177900
0.13333300 0.15150700 0.14352300 0.13552300
0.13725500 0.15537100 0.14742700 0.13925700
0.14117600 0.15923500 0.15132900 0.14298200
0.14509800 0.16309700 0.15522900 0.14669400
0.14902000 0.16696300 0.15912800 0.15039900
0.15294100 0.17084000 0.16303400 0.15410000
0.15686300 0.17472700 0.16695000 0.15780500
0.16078400 0.17862300 0.17087500 0.16151500
0.16470600 0.18253000 0.17481500 0.16523100
0.16862700 0.18643600 0.17876400 0.16895700
0.17254900 0.19033600 0.18271700 0.17268600
0.17647100 0.19423600 0.18667500 0.17641900
0.18039200 0.19813600 0.19063900 0.18015800
0.18431400 0.20204700 0.19461300 0.18390100
0.18823500 0.20596200 0.19860300 0.18765600
0.19215700 0.20988200 0.20260700 0.19142100
0.19607800 0.21380700 0.20662100 0.19519600
0.20000000 0.21774500 0.21065100 0.19897800
0.20392200 0.22170400 0.21469900 0.20277300
0.20784300 0.22567800 0.21875600 0.20657900
0.21176500 0.22966100 0.22281600 0.21038700
0.21568600 0.23365900 0.22688600 0.21419600
0.21960800 0.23767700 0.23096200 0.21801200
0.22352900 0.24171200 0.23504000 0.22183100
0.22745100 0.24576100 0.23911900 0.22565500
0.23137300 0.24982900 0.24320400 0.22948400
0.23529400 0.25391700 0.24728800 0.23332100
0.23921600 0.25801500 0.25137100 0.23716200
0.24313700 0.26212300 0.25545400 0.24100600
0.24705900 0.26623800 0.25954200 0.24485400
0.25098000 0.27036200 0.26363200 0.24870900
0.25490200 0.27449600 0.26772900 0.25256400
0.25882400 0.27864600 0.27183900 0.25642800
0.26274500 0.28281800 0.27596900 0.26030600
0.26666700 0.28701400 0.28010200 0.26419600
0.27058800 0.29121500 0.28423300 0.26808200
0.27451000 0.29541100 0.28836700 0.27196100
0.27843100 0.29960600 0.29251000 0.27583500
0.28235300 0.30380500 0.29666600 0.27971300
0.28627500 0.30800700 0.30082900 0.28359500
0.29019600 0.31220400 0.30500100 0.28747800
0.29411800 0.31639300 0.30918100 0.29136600
0.29803900 0.32058000 0.31336400 0.29525500
0.30196100 0.32476700 0.31754900 0.29914700
0.30588200 0.32895100 0.32173500 0.30304200
0.30980400 0.33313100 0.32591200 0.30694000
0.31372500 0.33730800 0.33007400 0.31083500
0.31764700 0.34146400 0.33422000 0.31472000
0.32156900 0.34559800 0.33835200 0.31859700
0.32549000 0.34971100 0.34246700 0.32246300
0.32941200 0.35380900 0.34656500 0.32631700
0.33333300 0.35789300 0.35065600 0.33015700
0.33725500 0.36197300 0.35473400 0.33398800
0.34117600 0.36605200 0.35879700 0.33780500
0.34509800 0.37011700 0.36285000 0.34160700
0.34902000 0.37416800 0.36689600 0.34539800
0.35294100 0.37820900 0.37093300 0.34918000
0.35686300 0.38224200 0.37496600 0.35295300
0.36078400 0.38627000 0.37900100 0.35672100
0.36470600 0.39030100 0.38303800 0.36048900
0.36862700 0.39433900 0.38707300 0.36426300
0.37254900 0.39837800 0.39108500 0.36804300
0.37647100 0.40241500 0.39507200 0.37181900
0.38039200 0.40643400 0.39903900 0.37558700
0.38431400 0.41042800 0.40299300 0.37934500
0.38823500 0.41439700 0.40694100 0.38309700
0.39215700 0.41834600 0.41087700 0.38685000
0.39607800 0.42228400 0.41480300 0.39060200
0.40000000 0.42621200 0.41872200 0.39435200
0.40392200 0.43013400 0.42263300 0.39809700
0.40784300 0.43406000 0.42654200 0.40183800
0.41176500 0.43798800 0.43044600 0.40557800
0.41568600 0.44192600 0.43433600 0.40931600
0.41960800 0.44587400 0.43821100 0.41304500
0.42352900 0.44982400 0.44207600 0.41675800
0.42745100 0.45377300 0.44593000 0.42045900
0.43137300 0.45772700 0.44977100 0.42415200
0.43529400 0.46168900 0.45360100 0.42783300
0.43921600 0.46565400 0.45741800 0.43150600
0.44313700 0.46961500 0.46122600 0.43517200
0.44705900 0.47357400 0.46502000 0.43883200
0.45098000 0.47752700 0.46880100 0.44248700
0.45490200 0.48147500 0.47256700 0.44613900
0.45882400 0.48541500 0.47631800 0.44978700
0.46274500 0.48934900 0.48005500 0.45343200
0.46666700 0.49327500 0.48378600 0.45707300
0.47058800 0.49719500 0.48751400 0.46071200
0.47451000 0.50111200 0.49124100 0.46435300
0.47843100 0.50503100 0.49496500 0.46799400
0.48235300 0.50894600 0.49868800 0.47163600
0.48627500 0.51285900 0.50240900 0.47527800
0.49019600 0.51676800 0.50613200 0.47892100
0.49411800 0.52067400 0.50985500 0.48256400
0.49803900 0.52457800 0.51358100 0.48620500
0.50196100 0.52848100 0.51730700 0.48984400
0.50588200 0.53238300 0.52103400 0.49348000
0.50980400 0.53628700 0.52476300 0.49711200
0.51372500 0.54019200 0.52848800 0.50074400
0.51764700 0.54410500 0.53220500 0.50437300
0.52156900 0.54802100 0.53591500 0.50799500
0.52549000 0.55193300 0.53961800 0.51160800
0.52941200 0.55584500 0.54331300 0.51521200
0.53333300 0.55976000 0.54700400 0.51880900
0.53725500 0.56367900 0.55068700 0.52240200
0.54117600 0.56760800 0.55435000 0.52599100
0.54509800 0.57154500 0.55798900 0.52956300
0.54902000 0.57547500 0.56160900 0.53311300
0.55294100 0.57938700 0.56521700 0.53664300
0.55686300 0.58327900 0.56881200 0.54016000
0.56078400 0.58715600 0.57239400 0.54366400
0.56470600 0.59101900 0.57596300 0.54715200
0.56862700 0.59486900 0.57952300 0.55062700
0.57254900 0.59870900 0.58307900 0.55408900
0.57647100 0.60254200 0.58662900 0.55754400
0.58039200 0.60636800 0.59017500 0.56099000
0.58431400 0.61018700 0.59372000 0.56443100
0.58823500 0.61399900 0.59726200 0.56787100
0.59215700 0.61780500 0.60080200 0.57130700
0.59607800 0.62160000 0.60434100 0.57474000
0.60000000 0.62538200 0.60788100 0.57817000
0.60392200 0.62915600 0.61141700 0.58159800
0.60784300 0.63292200 0.61494900 0.58501800
0.61176500 0.63667800 0.61847700 0.58843300
0.61568600 0.64042800 0.62200700 0.59184900
0.61960800 0.64417600 0.62554500 0.59527100
0.62352900 0.64793400 0.62909400 0.59870500
0.62745100 0.65170500 0.63265400 0.60214900
0.63137300 0.65549100 0.63622500 0.60560200
0.63529400 0.65928900 0.63980600 0.60906300
0.63921600 0.66309700 0.64339000 0.61253300
0.64313700 0.66691600 0.64695500 0.61599600
0.64705900 0.67073000 0.65049800 0.61944100
0.65098000 0.67452300 0.65402000 0.62286800
0.65490200 0.67829500 0.65752200 0.62627700
0.65882400 0.68204500 0.66101000 0.62966600
0.66274500 0.68577100 0.66448900 0.63304000
0.66666700 0.68947500 0.66796200 0.63640400
0.67058800 0.69316300 0.67143400 0.63976200
0.67451000 0.69684500 0.67490600 0.64311800
0.67843100 0.70052400 0.67838000 0.64647500
0.68235300 0.70420400 0.68185500 0.64983300
0.68627500 0.70788100 0.68532800 0.65318900
0.69019600 0.71155300 0.68879800 0.65654200
0.69411800 0.71522100 0.69227000 0.65989100
0.69803900 0.71889300 0.69574100 0.66323700
0.70196100 0.72257100 0.69921700 0.66658400
0.70588200 0.72625800 0.70269100 0.66993400
0.70980400 0.72994800 0.70616000 0.67328100
0.71372500 0.73363400 0.70962900 0.67662700
0.71764700 0.73731700 0.71309300 0.67997300
0.72156900 0.74099700 0.71655200 0.68331500
0.72549000 0.74467600 0.72000600 0.68665600
0.72941200 0.74835300 0.72345400 0.68999400
0.73333300 0.75203200 0.72689700 0.69332900
0.73725500 0.75570700 0.73033200 0.69666100
0.74117600 0.75937900 0.73376300 0.69998900
0.74509800 0.76304900 0.73718900 0.70331300
0.74902000 0.76671900 0.74061400 0.70663400
0.75294100 0.77038900 0.74403400 0.70995300
0.75686300 0.77405500 0.74745200 0.71326800
0.76078400 0.77771500 0.75086800 0.71657900
0.76470600 0.78137200 0.75428200 0.71988400
0.76862700 0.78502700 0.75769800 0.72318500
0.77254900 0.78868900 0.76112200 0.72648800
0.77647100 0.79236500 0.76456000 0.72979800
0.78039200 0.79605300 0.76801100 0.73311400
0.78431400 0.79975100 0.77147100 0.73643500
0.78823500 0.80344800 0.77492400 0.73975300
0.79215700 0.80713400 0.77837100 0.74306500
0.79607800 0.81081000 0.78181100 0.74637100
0.80000000 0.81447300 0.78524900 0.74967400
0.80392200 0.81813000 0.78868800 0.75297600
0.80784300 0.82178700 0.79213000 0.75628300
0.81176500 0.82544400 0.79557000 0.75959400
0.81568600 0.82909600 0.79900600 0.76290500
0.81960800 0.83274400 0.80244000 0.76621900
0.82352900 0.83639400 0.80587600 0.76953900
0.82745100 0.84004900 0.80931600 0.77286800
0.83137300 0.84370900 0.81276100 0.77620300
0.83529400 0.84737600 0.81620800 0.77954100
0.83921600 0.85105700 0.81966200 0.78288700
0.84313700 0.85475400 0.82312100 0.78624000
0.84705900 0.85846400 0.82658200 0.78959400
0.85098000 0.86217000 0.83003500 0.79293900
0.85490200 0.86586900 0.83347800 0.79627400
0.85882400 0.86956200 0.83691900 0.79960100
0.86274500 0.87325300 0.84036000 0.80292500
0.86666700 0.87694500 0.84380000 0.80624500
0.87058800 0.88064100 0.84724300 0.80956200
0.87451000 0.88434200 0.85068800 0.81288000
0.87843100 0.88805000 0.85413800 0.81619900
0.88235300 0.89175900 0.85758700 0.81951700
0.88627500 0.89546400 0.86102800 0.82282600
0.89019600 0.89916100 0.86446300 0.82613100
0.89411800 0.90285200 0.86789600 0.82943500
0.89803900 0.90653800 0.87133000 0.83274000
0.90196100 0.91021700 0.87476600 0.83604800
0.90588200 0.91387900 0.87819700 0.83935300
0.90980400 0.91752200 0.88162100 0.84265300
0.91372500 0.92114900 0.88504300 0.84595300
0.91764700 0.92476200 0.88846600 0.84925400
0.92156900 0.92835400 0.89188800 0.85255100
0.92549000 0.93192900 0.89531300 0.85584800
0.92941200 0.93549100 0.89874500 0.85914700
0.93333300 0.93904100 0.90218200 0.86244500
0.93725500 0.94258500 0.90562700 0.86574400
0.94117600 0.94612100 0.90907700 0.86904300
0.94509800 0.94965200 0.91253400 0.87234400
0.94902000 0.95318100 0.91599600 0.87564500
0.95294100 0.95671100 0.91946200 0.87894400
0.95686300 0.96024700 0.92293300 0.88224200
0.96078400 0.96378900 0.92640800 0.88553900
0.96470600 0.96733800 0.92988500 0.88883600
0.96862700 0.97089200 0.93336100 0.89213300
0.97254900 0.97445100 0.93683700 0.89543000
0.97647100 0.97801600 0.94031200 0.89872600
0.98039200 0.98158600 0.94378700 0.90202300
0.98431400 0.98516100 0.94726100 0.90532000
0.98823500 0.98874200 0.95073500 0.90861700
0.99215700 0.99232800 0.95420800 0.91191400
0.99607800 0.99591900 0.95768000 0.91521100
1.00000000 0.99951600 0.96115200 0.91850800
END_DATA
CAL    

DESCRIPTOR "Argyll Calibration options and model"
ORIGINATOR "Argyll dispcal"
CREATED "Thu Nov 30 21:54:18 201"

NUMBER_OF_FIELDS 3
BEGIN_DATA_FORMAT
R_P G_P B_P
END_DATA_FORMAT

NUMBER_OF_SETS 32
BEGIN_DATA
0.000389201 0.000480233 0.000607773
0.999611000 0.999520000 0.999392000
1.681903000 1.748899000 2.053934000
0.470001000 0.463321000 0.239048000
0.130932000 0.147045000 0.181998000
0.152298000 0.154694000 0.138174000
0.148537000 0.133423000 0.119230000
0.080249800 0.081129300 0.104809000
0.074574900 0.070358800 0.090159400
0.081543700 0.072630400 0.082153400
0.075484700 0.070010700 0.076821400
0.064726900 0.058349400 0.069717200
0.062687500 0.058569900 0.063045300
0.059754100 0.055694600 0.058513700
0.056566300 0.051843700 0.051923400
0.052904400 0.048879400 0.052470200
0.051893400 0.048092600 0.048094600
0.041882900 0.041965600 0.043011800
0.043164900 0.040199700 0.042240200
0.041744000 0.041207500 0.041158200
0.039781000 0.038060500 0.036635500
0.040235600 0.039146000 0.035002200
0.035628200 0.033949600 0.032717700
0.035490500 0.031797400 0.035246400
0.034073900 0.037813400 0.027440400
0.030028600 0.030753900 0.033855000
0.028767600 0.028414400 0.023839100
0.028099200 0.028270700 0.024597100
0.027340400 0.027504600 0.031375700
0.026084200 0.028633100 0.018977100
0.024970400 0.026579800 0.023264700
0.023221800 0.027285900 0.025102100
END_DATA