screenprofiles/xps15-9550/Y2XND-LQ156D1 #1 2017-11-30 21-37 D6500 2.2 S XYZLUT+MTX/Y2XND-LQ156D1 #1 2017-11-30 21-37 D6500 2.2 S XYZLUT+MTX.ti1
CTI1   

DESCRIPTOR "Argyll Calibration Target chart information 1"
ORIGINATOR "Argyll targen"
CREATED "Thu Nov 30 21:31:47 2017"
SINGLE_DIM_STEPS "5"
COMP_GREY_STEPS "52"
MULTI_DIM_STEPS "5"
COLOR_REP "RGB"
TARGET_INSTRUMENT "X-Rite i1 DisplayPro, ColorMunki Display"
DISPLAY_TYPE_REFRESH "NO"
DISPLAY_TYPE_BASE_ID "1"
INSTRUMENT_TYPE_SPECTRAL "NO"
NORMALIZED_TO_Y_100 "YES"
VIDEO_LUT_CALIBRATION_POSSIBLE "YES"
OBSERVER "1931_2"
USE_BLACK_POINT_COMPENSATION "NO"
BLACK_POINT_CORRECTION "0.0"
HIRES_B2A "YES"
HIRES_B2A_SIZE "-1"
SMOOTH_B2A "YES"
PATCH_SEQUENCE "OPTIMIZE_DISPLAY_RESPONSE_DELAY"

NUMBER_OF_FIELDS 7
BEGIN_DATA_FORMAT
SAMPLE_ID RGB_R RGB_G RGB_B XYZ_X XYZ_Y XYZ_Z
END_DATA_FORMAT

NUMBER_OF_SETS 175
BEGIN_DATA
1 100.00000 100.00000 100.00000 93.669190 100.00000 121.84880
2 100.00000 100.00000 75.000000 83.800350 96.410400 68.563130
3 100.00000 100.00000 100.00000 93.681730 99.989120 121.84850
4 100.00000 100.00000 100.00000 93.659560 99.980540 121.84870
5 0.0000000 0.0000000 0.0000000 0.0980054 0.1017640 0.1404320
6 25.000000 0.0000000 0.0000000 2.5934470 1.3658740 0.1797410
7 50.000000 0.0000000 0.0000000 11.578720 5.9234300 0.3254740
8 75.000000 0.0000000 0.0000000 28.205000 14.347240 0.5970650
9 100.00000 0.0000000 0.0000000 54.749050 27.805910 1.0160570
10 100.00000 0.0000000 25.000000 55.747790 28.162750 6.2242300
11 100.00000 25.000000 25.000000 56.659890 31.224770 6.6295620
12 100.00000 50.000000 25.000000 59.692220 42.251350 7.9254010
13 100.00000 75.000000 25.000000 65.105840 61.950450 10.205990
14 0.0000000 0.0000000 25.000000 1.0252980 0.4256740 5.2012230
15 25.000000 0.0000000 25.000000 3.5577330 1.7069420 5.2967450
16 75.000000 0.0000000 100.00000 49.321060 21.928710 113.93450
17 100.00000 0.0000000 100.00000 75.649200 35.271300 114.36840
18 1.9608000 1.9608000 1.9608000 0.1074280 0.1110230 0.1512370
19 3.9216000 3.9216000 3.9216000 0.1620150 0.1683720 0.2250820
20 5.8824000 5.8824000 5.8824000 0.2774550 0.2983390 0.3621030
21 7.8431000 7.8431000 7.8431000 0.4393660 0.4647490 0.6008030
22 9.8039000 9.8039000 9.8039000 0.6740290 0.7249110 0.8777160
23 11.765000 11.765000 11.765000 0.9604400 1.0225840 1.2241390
24 13.726000 13.726000 13.726000 1.2690760 1.3645930 1.6442110
25 15.686000 15.686000 15.686000 1.6582360 1.7773170 2.1387940
26 17.647000 17.647000 17.647000 2.1135030 2.2469990 2.6982860
27 19.608000 19.608000 19.608000 2.6347550 2.8012440 3.3524340
28 21.569000 21.569000 21.569000 3.2369870 3.4114180 4.2133160
29 23.529000 23.529000 23.529000 3.8850450 4.1427910 5.0182140
30 27.451000 27.451000 27.451000 5.4694080 5.8138500 7.0324340
31 29.412000 29.412000 29.412000 6.3482480 6.8150680 8.2880570
32 31.373000 31.373000 31.373000 7.2946610 7.7812300 9.5196700
33 33.333000 33.333000 33.333000 8.2855940 8.9550400 10.731580
34 35.294000 35.294000 35.294000 9.5093950 10.152630 12.405950
35 37.255000 37.255000 37.255000 10.672190 11.359780 13.848740
36 39.216000 39.216000 39.216000 11.867880 12.647860 15.431590
37 41.176000 41.176000 41.176000 13.168740 14.001130 17.107040
38 43.137000 43.137000 43.137000 14.524600 15.463100 18.876170
39 45.098000 45.098000 45.098000 15.923040 17.006250 20.831720
40 47.059000 47.059000 47.059000 17.423680 18.664120 22.834050
41 49.020000 49.020000 49.020000 19.099990 20.435480 25.068210
42 50.980000 50.980000 50.980000 20.919940 22.369070 27.349270
43 52.941000 52.941000 52.941000 22.756370 24.333520 29.723470
44 54.902000 54.902000 54.902000 24.696190 26.427170 32.376970
45 56.863000 56.863000 56.863000 26.621970 28.613210 34.567050
46 58.824000 58.824000 58.824000 28.668970 30.631250 37.311380
47 60.784000 60.784000 60.784000 30.846140 33.016090 40.244710
48 62.745000 62.745000 62.745000 33.186390 35.544470 43.363910
49 64.706000 64.706000 64.706000 35.455840 37.816400 45.969530
50 66.667000 66.667000 66.667000 37.766340 40.460900 49.276370
51 68.627000 68.627000 68.627000 40.230420 42.886940 52.718250
52 70.588000 70.588000 70.588000 42.882710 45.814020 55.699540
53 72.549000 72.549000 72.549000 45.682570 48.546630 59.513300
54 76.471000 76.471000 76.471000 51.071480 54.339200 66.728940
55 78.431000 78.431000 78.431000 54.250010 57.762010 70.640020
56 80.392000 80.392000 80.392000 57.513890 61.289590 75.062650
57 82.353000 82.353000 82.353000 60.168840 64.168850 78.693930
58 84.314000 84.314000 84.314000 63.757670 67.969060 83.255780
59 86.275000 86.275000 86.275000 67.219100 71.714690 87.678940
60 88.235000 88.235000 88.235000 70.965140 75.339890 93.073400
61 90.196000 90.196000 90.196000 74.366780 79.203850 96.662190
62 92.157000 92.157000 92.157000 77.619440 83.022560 101.55330
63 94.118000 94.118000 94.118000 81.867360 87.427590 106.90540
64 96.078000 96.078000 96.078000 86.137280 91.898800 112.11870
65 98.039000 98.039000 98.039000 90.204910 96.265510 117.47230
66 25.000000 25.000000 0.0000000 3.4339810 4.3325760 0.5163100
67 50.000000 25.000000 0.0000000 12.514280 8.9530160 0.6654060
68 75.000000 25.000000 0.0000000 29.128760 17.387130 0.9376350
69 100.00000 25.000000 0.0000000 55.584260 30.811480 1.3578400
70 100.00000 50.000000 0.0000000 58.595320 41.707840 2.6008120
71 50.000000 50.000000 0.0000000 15.507540 19.780080 1.9007430
72 75.000000 50.000000 0.0000000 32.176160 28.250830 2.1736790
73 25.000000 50.000000 0.0000000 6.4046790 15.122870 1.7476150
74 25.000000 75.000000 0.0000000 11.801410 34.802310 3.9934200
75 50.000000 75.000000 0.0000000 20.958400 39.496160 4.1471250
76 75.000000 75.000000 0.0000000 37.594940 47.938850 4.4187240
77 100.00000 75.000000 0.0000000 64.023970 61.415330 4.8471540
78 25.000000 100.00000 0.0000000 20.398730 65.858480 7.5129310
79 50.000000 100.00000 0.0000000 29.580200 70.530550 7.6632520
80 75.000000 100.00000 0.0000000 46.261220 78.990420 7.9352250
81 100.00000 100.00000 0.0000000 72.585950 92.332910 8.3527290
82 100.00000 100.00000 25.000000 73.674370 92.757760 13.745930
83 50.000000 0.0000000 25.000000 12.629780 6.3072230 5.4738500
84 50.000000 25.000000 50.000000 17.147980 10.658690 25.061680
85 0.0000000 25.000000 0.0000000 0.8960600 3.0170240 0.4732490
86 0.0000000 25.000000 25.000000 1.8405440 3.3747470 5.5903810
87 25.490000 25.490000 25.490000 4.6109030 4.9572800 6.0519210
88 50.000000 25.000000 25.000000 13.579740 9.3660290 5.8884570
89 75.000000 25.000000 25.000000 30.228980 17.828270 6.1748690
90 0.0000000 50.000000 0.0000000 3.8250560 13.704520 1.6929840
91 0.0000000 50.000000 25.000000 4.8043320 14.152080 6.8510270
92 25.000000 50.000000 25.000000 7.4071750 15.590260 6.9708000
93 50.000000 50.000000 25.000000 16.606460 20.282020 7.1603890
94 75.000000 50.000000 25.000000 33.276040 28.783210 7.4522210
95 0.0000000 75.000000 0.0000000 9.2114710 33.364480 3.9353540
96 0.0000000 75.000000 25.000000 10.193440 33.842540 9.1205960
97 25.000000 75.000000 25.000000 12.831350 35.278430 9.2416620
98 50.000000 75.000000 25.000000 22.061280 39.998200 9.4256970
99 75.000000 75.000000 25.000000 38.690940 48.451920 9.7246560
100 0.0000000 100.00000 0.0000000 17.790750 64.522630 7.4718240
101 0.0000000 100.00000 25.000000 18.759350 64.881890 12.702310
102 25.000000 100.00000 25.000000 21.382400 66.248570 12.829860
103 50.000000 100.00000 25.000000 30.673200 70.963510 12.972150
104 75.000000 100.00000 25.000000 47.380870 79.432080 13.265390
105 0.0000000 0.0000000 50.000000 4.4730010 1.6395940 24.020330
106 25.000000 0.0000000 50.000000 7.0491420 2.9374690 24.286950
107 50.000000 0.0000000 50.000000 16.152030 7.5523450 24.476540
108 75.000000 0.0000000 50.000000 32.807710 15.991240 24.816460
109 100.00000 0.0000000 50.000000 59.263260 29.388400 25.389040
110 100.00000 0.0000000 75.000000 65.689080 31.676000 60.479470
111 100.00000 25.000000 75.000000 66.642630 34.799970 61.111770
112 75.000000 0.0000000 25.000000 29.250870 14.740520 5.7723900
113 75.000000 25.000000 50.000000 33.798830 19.101770 25.401710
114 100.00000 25.000000 50.000000 60.175320 32.484060 25.974980
115 25.000000 25.000000 50.000000 7.9390270 5.9666690 24.825840
116 25.000000 50.000000 50.000000 10.944740 16.843690 26.089140
117 75.000000 50.000000 50.000000 36.840220 30.067770 26.712200
118 100.00000 50.000000 50.000000 63.245600 43.508440 27.285870
119 100.00000 50.000000 75.000000 69.687840 45.846100 62.423210
120 25.000000 75.000000 50.000000 16.373740 36.573620 28.457700
121 50.000000 75.000000 50.000000 25.649210 41.291380 28.693140
122 75.000000 75.000000 50.000000 42.265350 49.736760 29.033580
123 100.00000 75.000000 50.000000 68.655280 63.218650 29.607920
124 100.00000 75.000000 75.000000 75.151550 65.573740 64.791360
125 25.000000 100.00000 50.000000 24.956870 67.514210 32.185010
126 50.000000 100.00000 50.000000 34.289220 72.238260 32.419900
127 75.000000 100.00000 50.000000 50.962180 80.709130 32.713560
128 100.00000 100.00000 50.000000 77.272220 94.046470 33.333470
129 25.000000 0.0000000 75.000000 13.491380 5.2172440 59.377110
130 50.000000 0.0000000 75.000000 22.614550 9.8445950 59.613100
131 75.000000 0.0000000 75.000000 39.233530 18.278830 59.906890
132 75.000000 25.000000 75.000000 40.256450 21.417410 60.492140
133 75.000000 50.000000 100.00000 53.369670 36.151290 115.64590
134 25.000000 25.000000 75.000000 14.384170 8.2739880 59.962770
135 25.000000 50.000000 100.00000 27.367390 22.887640 115.20950
136 0.0000000 25.000000 50.000000 5.3248340 4.6104030 24.605380
137 0.0000000 25.000000 75.000000 11.766750 6.9042320 59.695710
138 0.0000000 50.000000 75.000000 14.731030 17.733750 60.958880
139 25.000000 50.000000 75.000000 17.406300 19.201070 61.272990
140 50.000000 50.000000 75.000000 26.637360 23.920870 61.462460
141 75.000000 50.000000 75.000000 43.307470 32.402870 61.802760
142 74.510000 74.510000 74.510000 48.151480 51.429040 63.193130
143 0.0000000 75.000000 75.000000 20.136830 37.383020 63.233760
144 25.000000 75.000000 75.000000 22.802410 38.850080 63.501490
145 50.000000 75.000000 75.000000 32.087510 43.587300 63.737060
146 0.0000000 75.000000 50.000000 13.720710 35.095690 28.189690
147 0.0000000 100.00000 50.000000 22.282570 66.138170 31.918500
148 0.0000000 100.00000 75.000000 28.718080 68.426020 67.055290
149 25.000000 100.00000 75.000000 31.414550 69.810650 67.321670
150 50.000000 100.00000 75.000000 40.756540 74.554160 67.556700
151 75.000000 100.00000 75.000000 57.493230 83.042720 67.942820
152 75.000000 100.00000 100.00000 67.432640 86.661400 121.41400
153 25.000000 0.0000000 100.00000 23.443080 8.8075690 113.49840
154 50.000000 0.0000000 100.00000 32.623080 13.460400 113.68760
155 0.0000000 0.0000000 75.000000 10.903460 3.9218330 59.110640
156 0.0000000 0.0000000 100.00000 20.854450 7.4979230 113.41760
157 0.0000000 25.000000 100.00000 21.693380 10.516310 113.81750
158 25.000000 25.000000 100.00000 24.297100 11.863260 113.89860
159 50.000000 25.000000 100.00000 33.597590 16.578470 114.08720
160 75.000000 25.000000 100.00000 50.270550 25.049340 114.38090
161 100.00000 25.000000 100.00000 76.563990 38.394220 114.81520
162 100.00000 50.000000 100.00000 79.647720 49.518190 116.12720
163 50.000000 25.000000 75.000000 23.595970 12.954870 60.151980
164 50.000000 50.000000 100.00000 36.645650 27.613470 115.35200
165 0.0000000 50.000000 50.000000 8.2859450 15.407230 25.868180
166 0.0000000 50.000000 100.00000 24.674010 21.415090 115.08140
167 0.0000000 75.000000 100.00000 30.086470 41.133350 117.31060
168 25.000000 75.000000 100.00000 32.757680 42.597330 117.43880
169 50.000000 75.000000 100.00000 42.099610 47.360040 117.62760
170 75.000000 75.000000 100.00000 58.794680 55.858680 117.87490
171 100.00000 75.000000 100.00000 85.079450 69.275380 118.35660
172 0.0000000 100.00000 100.00000 38.592300 71.995060 120.85190
173 25.000000 100.00000 100.00000 41.294410 73.376600 120.97870
174 50.000000 100.00000 100.00000 50.670990 78.156210 121.12090
175 100.00000 100.00000 100.00000 93.605640 99.924720 121.89510
END_DATA