screenprofiles/xps15-9550/Y2XND-LQ156D1 #1 2017-11-30 21-58 1.8 S XYZLUT+MTX/Y2XND-LQ156D1 #1 2017-11-30 21-58 1.8 S XYZLUT+MTX.ti3
CTI3   

DESCRIPTOR "Argyll Calibration Target chart information 3"
ORIGINATOR "Argyll dispread"
CREATED "Thu Nov 30 22:15:46 2017"
DEVICE_CLASS "DISPLAY"
SINGLE_DIM_STEPS "5"
COMP_GREY_STEPS "52"
MULTI_DIM_STEPS "5"
COLOR_REP "RGB_XYZ"
TARGET_INSTRUMENT "X-Rite i1 DisplayPro, ColorMunki Display"
DISPLAY_TYPE_REFRESH "NO"
DISPLAY_TYPE_BASE_ID "1"
INSTRUMENT_TYPE_SPECTRAL "NO"
LUMINANCE_XYZ_CDM2 "360.090760 384.816289 469.634996"
NORMALIZED_TO_Y_100 "YES"
VIDEO_LUT_CALIBRATION_POSSIBLE "YES"

BEGIN_ARGYLL_COLPROF_ARGS
-v -qh -aX -bn -C "No copyright. Created with DisplayCAL 3.3.5.0 and ArgyllCMS 2.0.0" -M "Y2XND-LQ156D1" -A "Sharp Corporation"
END_ARGYLL_COLPROF_ARGS

OBSERVER "1931_2"
USE_BLACK_POINT_COMPENSATION "NO"
BLACK_POINT_CORRECTION "0.0"
HIRES_B2A "YES"
HIRES_B2A_SIZE "-1"
SMOOTH_B2A "YES"
PATCH_SEQUENCE "OPTIMIZE_DISPLAY_RESPONSE_DELAY"

NUMBER_OF_FIELDS 7
BEGIN_DATA_FORMAT
SAMPLE_ID RGB_R RGB_G RGB_B XYZ_X XYZ_Y XYZ_Z
END_DATA_FORMAT

NUMBER_OF_SETS 175
BEGIN_DATA
1 100.00000 100.00000 100.00000 93.574720 100.00000 122.04140
2 100.00000 100.00000 75.000000 85.042230 96.905600 76.171240
3 100.00000 100.00000 100.00000 93.552760 99.991500 122.04150
4 100.00000 100.00000 100.00000 93.552760 99.991500 122.04150
5 0.0000000 0.0000000 0.0000000 0.0969569 0.1008590 0.1396550
6 25.000000 0.0000000 0.0000000 4.3940170 2.2768070 0.2080160
7 50.000000 0.0000000 0.0000000 15.447600 7.8809960 0.3895560
8 75.000000 0.0000000 0.0000000 32.127430 16.339140 0.6635840
9 100.00000 0.0000000 0.0000000 54.575050 27.719480 1.0199090
10 100.00000 0.0000000 25.000000 56.360650 28.341740 10.431370
11 100.00000 25.000000 25.000000 57.959640 33.831450 11.171970
12 100.00000 50.000000 25.000000 61.611000 47.051300 12.767930
13 100.00000 75.000000 25.000000 67.106000 67.027360 15.071440
14 0.0000000 0.0000000 25.000000 1.7773740 0.6868050 9.3075340
15 25.000000 0.0000000 25.000000 6.1262420 2.8900610 9.4711510
16 75.000000 0.0000000 100.00000 53.246600 23.877590 114.17970
17 100.00000 0.0000000 100.00000 75.508700 35.170660 114.53530
18 1.9608000 1.9608000 1.9608000 0.1606430 0.1671120 0.2240640
19 3.9216000 3.9216000 3.9216000 0.3616900 0.3878950 0.4698370
20 5.8824000 5.8824000 5.8824000 0.6358810 0.6772950 0.8709910
21 7.8431000 7.8431000 7.8431000 1.0357540 1.0951910 1.3767360
22 9.8039000 9.8039000 9.8039000 1.4871670 1.6008760 1.9227950
23 11.765000 11.765000 11.765000 2.0349700 2.1577010 2.6887360
24 13.726000 13.726000 13.726000 2.6663160 2.8652190 3.4816810
25 15.686000 15.686000 15.686000 3.3758880 3.5979470 4.3553150
26 17.647000 17.647000 17.647000 4.1053440 4.3894570 5.3478340
27 19.608000 19.608000 19.608000 4.9958330 5.3068890 6.4351150
28 21.569000 21.569000 21.569000 5.8158390 6.2510330 7.6342590
29 23.529000 23.529000 23.529000 6.8626350 7.3517020 8.9546950
30 27.451000 27.451000 27.451000 9.0418290 9.6504140 11.777610
31 29.412000 29.412000 29.412000 10.222830 10.993960 13.253830
32 31.373000 31.373000 31.373000 11.558900 12.354310 15.096700
33 33.333000 33.333000 33.333000 12.868930 13.721850 16.709850
34 35.294000 35.294000 35.294000 14.349320 15.366580 18.830750
35 37.255000 37.255000 37.255000 15.853410 16.956410 20.766640
36 39.216000 39.216000 39.216000 17.312810 18.381830 22.793030
37 41.176000 41.176000 41.176000 18.867290 20.095000 24.591840
38 43.137000 43.137000 43.137000 20.493800 21.941690 26.851690
39 45.098000 45.098000 45.098000 22.293140 23.867410 29.156640
40 47.059000 47.059000 47.059000 24.049350 25.622350 31.229860
41 49.020000 49.020000 49.020000 25.738250 27.621330 33.859050
42 50.980000 50.980000 50.980000 27.672080 29.606020 36.071220
43 52.941000 52.941000 52.941000 29.694990 31.620030 38.558880
44 54.902000 54.902000 54.902000 31.738220 33.969100 41.464610
45 56.863000 56.863000 56.863000 33.611220 36.002970 43.954160
46 58.824000 58.824000 58.824000 35.852780 38.293760 46.580890
47 60.784000 60.784000 60.784000 38.006390 40.889770 49.258380
48 62.745000 62.745000 62.745000 40.518900 43.366900 52.666750
49 64.706000 64.706000 64.706000 42.759860 45.754440 55.662820
50 66.667000 66.667000 66.667000 45.102070 48.236570 58.751000
51 68.627000 68.627000 68.627000 47.438400 50.816800 61.748410
52 70.588000 70.588000 70.588000 49.715820 53.325800 64.975670
53 72.549000 72.549000 72.549000 52.308350 56.055440 68.340270
54 76.471000 76.471000 76.471000 57.501030 61.654430 75.117110
55 78.431000 78.431000 78.431000 60.155830 64.574380 78.759470
56 80.392000 80.392000 80.392000 62.841110 67.149540 82.167150
57 82.353000 82.353000 82.353000 65.728950 70.196070 85.946580
58 84.314000 84.314000 84.314000 68.682540 73.306110 89.634040
59 86.275000 86.275000 86.275000 71.689260 76.755300 94.061380
60 88.235000 88.235000 88.235000 74.596180 79.840360 97.841080
61 90.196000 90.196000 90.196000 77.475380 82.977010 101.62170
62 92.157000 92.157000 92.157000 80.784510 86.451480 105.81600
63 94.118000 94.118000 94.118000 84.175760 90.001020 110.05630
64 96.078000 96.078000 96.078000 87.712180 93.662150 114.38840
65 98.039000 98.039000 98.039000 91.026160 97.268340 118.72230
66 25.000000 25.000000 0.0000000 5.8958810 7.6054120 0.8136180
67 50.000000 25.000000 0.0000000 17.060020 13.279760 0.9990890
68 75.000000 25.000000 0.0000000 33.739810 21.765770 1.2750490
69 100.00000 25.000000 0.0000000 56.121790 33.120620 1.6328550
70 100.00000 50.000000 0.0000000 59.739230 46.241300 3.1291570
71 50.000000 50.000000 0.0000000 20.659960 26.331820 2.4885020
72 75.000000 50.000000 0.0000000 37.317890 34.809340 2.7650100
73 25.000000 50.000000 0.0000000 9.4955700 20.657470 2.3018200
74 25.000000 75.000000 0.0000000 15.004340 40.671920 4.5802350
75 50.000000 75.000000 0.0000000 26.200520 46.374050 4.7683170
76 75.000000 75.000000 0.0000000 42.829390 54.793750 5.0423080
77 100.00000 75.000000 0.0000000 65.236610 66.236430 5.3985770
78 25.000000 100.00000 0.0000000 22.269620 66.910900 7.5534490
79 50.000000 100.00000 0.0000000 33.499650 72.610740 7.7385870
80 75.000000 100.00000 0.0000000 50.181720 81.066700 8.0113000
81 100.00000 100.00000 0.0000000 72.455430 92.348980 8.3628050
82 100.00000 100.00000 25.000000 74.339020 93.080050 18.075260
83 50.000000 0.0000000 25.000000 17.318270 8.5559610 9.7405840
84 50.000000 25.000000 50.000000 23.196030 15.554460 33.415620
85 0.0000000 25.000000 0.0000000 1.5394340 5.3344030 0.7372130
86 0.0000000 25.000000 25.000000 3.2444030 5.9798990 10.047150
87 25.490000 25.490000 25.490000 8.0327460 8.5776810 10.486930
88 50.000000 25.000000 25.000000 18.948860 14.045800 10.480840
89 75.000000 25.000000 25.000000 35.622070 22.512620 10.770810
90 0.0000000 50.000000 0.0000000 5.0895400 18.290060 2.2156730
91 0.0000000 50.000000 25.000000 6.8442370 19.043070 11.595720
92 25.000000 50.000000 25.000000 11.342180 21.436670 11.806070
93 50.000000 50.000000 25.000000 22.577310 27.166770 12.029800
94 75.000000 50.000000 25.000000 39.288730 35.691660 12.366090
95 0.0000000 75.000000 0.0000000 10.574410 38.326080 4.4990910
96 0.0000000 75.000000 25.000000 12.348770 39.038400 13.899360
97 25.000000 75.000000 25.000000 16.846720 41.432000 14.109710
98 50.000000 75.000000 25.000000 28.135300 47.198370 14.333310
99 75.000000 75.000000 25.000000 44.767480 55.618150 14.623150
100 0.0000000 100.00000 0.0000000 17.813390 64.616680 7.4800010
101 0.0000000 100.00000 25.000000 19.552160 65.263090 16.951650
102 25.000000 100.00000 25.000000 24.080700 67.575080 17.160660
103 50.000000 100.00000 25.000000 35.438020 73.336900 17.383450
104 75.000000 100.00000 25.000000 52.123650 81.792950 17.673150
105 0.0000000 0.0000000 50.000000 5.9415380 2.1508190 32.012590
106 25.000000 0.0000000 50.000000 10.353690 4.3797030 32.359900
107 50.000000 0.0000000 50.000000 21.511980 10.038740 32.583600
108 75.000000 0.0000000 50.000000 38.175650 18.486290 32.873440
109 100.00000 0.0000000 50.000000 60.563900 29.833400 33.366430
110 100.00000 0.0000000 75.000000 66.968060 32.107660 68.205550
111 100.00000 25.000000 75.000000 68.602500 37.647450 69.084430
112 75.000000 0.0000000 25.000000 33.957220 16.997420 10.030620
113 75.000000 25.000000 50.000000 39.866480 24.013300 33.797560
114 100.00000 25.000000 50.000000 62.198400 35.354190 34.291090
115 25.000000 25.000000 50.000000 11.960900 9.8243610 33.191890
116 25.000000 50.000000 50.000000 15.548260 22.917310 34.694940
117 75.000000 50.000000 50.000000 43.523540 37.192090 35.346930
118 100.00000 50.000000 50.000000 65.840170 48.573790 35.841130
119 100.00000 50.000000 75.000000 72.282480 50.925120 70.680780
120 25.000000 75.000000 50.000000 21.119800 42.971490 37.182650
121 50.000000 75.000000 50.000000 32.389300 48.699310 37.405980
122 75.000000 75.000000 50.000000 49.037730 57.168670 37.742270
123 100.00000 75.000000 50.000000 71.354360 68.550370 38.236470
124 100.00000 75.000000 75.000000 77.758400 70.862640 72.984030
125 25.000000 100.00000 50.000000 28.353840 69.095550 40.279380
126 50.000000 100.00000 50.000000 39.698810 74.849130 40.548220
127 75.000000 100.00000 50.000000 56.394030 83.305440 40.883830
128 100.00000 100.00000 50.000000 78.641010 94.582290 41.377510
129 25.000000 0.0000000 75.000000 16.756360 6.6466670 67.152930
130 50.000000 0.0000000 75.000000 27.928500 12.321230 67.376670
131 75.000000 0.0000000 75.000000 44.582630 20.749510 67.666370
132 75.000000 25.000000 75.000000 46.260980 26.306310 68.544980
133 75.000000 50.000000 100.00000 58.610330 42.766030 116.37920
134 25.000000 25.000000 75.000000 18.343050 12.109130 67.985360
135 25.000000 50.000000 100.00000 30.551180 28.479580 115.86600
136 0.0000000 25.000000 50.000000 7.4380010 7.4903150 32.890510
137 0.0000000 25.000000 75.000000 13.832560 9.7643090 67.683710
138 0.0000000 50.000000 75.000000 17.432400 22.827480 69.232280
139 25.000000 50.000000 75.000000 21.987750 25.279670 69.580780
140 50.000000 50.000000 75.000000 33.266790 31.026770 69.804240
141 75.000000 50.000000 75.000000 49.946710 39.523890 70.140530
142 74.510000 74.510000 74.510000 54.863630 58.817410 71.705660
143 0.0000000 75.000000 75.000000 22.914980 42.814310 71.536060
144 25.000000 75.000000 75.000000 27.495170 45.244960 71.884020
145 50.000000 75.000000 75.000000 38.827650 51.028320 72.107350
146 0.0000000 75.000000 50.000000 16.530010 40.540570 36.788770
147 0.0000000 100.00000 50.000000 23.774610 66.755280 39.978540
148 0.0000000 100.00000 75.000000 30.169170 69.029270 74.771740
149 25.000000 100.00000 75.000000 34.748400 71.369540 75.072580
150 50.000000 100.00000 75.000000 46.127680 77.139860 75.295230
151 75.000000 100.00000 75.000000 62.842040 85.615700 75.676900
152 75.000000 100.00000 100.00000 71.381310 88.721390 121.63910
153 25.000000 0.0000000 100.00000 25.332510 9.7407510 113.66680
154 50.000000 0.0000000 100.00000 36.582930 15.430040 113.88990
155 0.0000000 0.0000000 75.000000 12.339910 4.4126850 66.897640
156 0.0000000 0.0000000 100.00000 20.887890 7.4854980 113.54960
157 0.0000000 25.000000 100.00000 22.381060 12.890970 114.24430
158 25.000000 25.000000 100.00000 26.887520 15.232470 114.36190
159 50.000000 25.000000 100.00000 38.222830 21.004800 114.53900
160 75.000000 25.000000 100.00000 54.896040 29.471630 114.82900
161 100.00000 25.000000 100.00000 77.155320 40.775730 115.23080
162 100.00000 50.000000 100.00000 80.832350 54.102440 116.78180
163 50.000000 25.000000 75.000000 29.631680 17.856480 68.254740
164 50.000000 50.000000 100.00000 41.896090 34.252170 116.08910
165 0.0000000 50.000000 50.000000 11.021580 20.503910 34.392620
166 0.0000000 50.000000 100.00000 25.999910 26.011680 115.74740
167 0.0000000 75.000000 100.00000 31.460470 46.009030 118.00550
168 25.000000 75.000000 100.00000 36.055720 48.474910 118.16970
169 50.000000 75.000000 100.00000 47.444530 54.264500 118.39240
170 75.000000 75.000000 100.00000 64.149240 62.759090 118.68240
171 100.00000 75.000000 100.00000 86.349310 74.087000 119.08520
172 0.0000000 100.00000 100.00000 38.646700 72.074760 121.01000
173 25.000000 100.00000 100.00000 43.263010 74.439750 121.17270
174 50.000000 100.00000 100.00000 54.686140 80.246070 121.34930
175 100.00000 100.00000 100.00000 93.524090 99.952700 121.99530
END_DATA
CAL    

DESCRIPTOR "Argyll Device Calibration State"
ORIGINATOR "Argyll dispread"
CREATED "Thu Nov 30 22:15:46 2017"
DEVICE_CLASS "DISPLAY"
COLOR_REP "RGB"

BEGIN_ARGYLL_DISPCAL_ARGS
-v2 -qh -m -t -g1.8 -f1.0 -k0 -A4.0 -d1 -c1 -yn -P0.499507874016,0.497159090909,1.62443845463
END_ARGYLL_DISPCAL_ARGS


NUMBER_OF_FIELDS 4
BEGIN_DATA_FORMAT
RGB_I RGB_R RGB_G RGB_B
END_DATA_FORMAT

NUMBER_OF_SETS 256
BEGIN_DATA
0.00000000 0.00000000 0.00000000 0.00000000
0.00392157 0.01238300 0.01130920 0.01104410
0.00784314 0.02351320 0.02162050 0.02115020
0.01176470 0.03357160 0.03106030 0.03043320
0.01568630 0.04271450 0.03973500 0.03899160
0.01960780 0.05110660 0.04776270 0.04692670
0.02352940 0.05891230 0.05527540 0.05433670
0.02745100 0.06626580 0.06239170 0.06132330
0.03137250 0.07326020 0.06920720 0.06798110
0.03529410 0.07995840 0.07579270 0.07437440
0.03921570 0.08641250 0.08220080 0.08056620
0.04313730 0.09263590 0.08845590 0.08660520
0.04705880 0.09866180 0.09456390 0.09251400
0.05098040 0.10451600 0.10054200 0.09831580
0.05490200 0.11021200 0.10641200 0.10402900
0.05882350 0.11577200 0.11216500 0.10966300
0.06274510 0.12120400 0.11781500 0.11523300
0.06666670 0.12651700 0.12336400 0.12074400
0.07058820 0.13173900 0.12883700 0.12619500
0.07450980 0.13687400 0.13425500 0.13161700
0.07843140 0.14192400 0.13961400 0.13700700
0.08235290 0.14692000 0.14492200 0.14235500
0.08627450 0.15186100 0.15019100 0.14767200
0.09019610 0.15675800 0.15542000 0.15295200
0.09411760 0.16159600 0.16059500 0.15819200
0.09803920 0.16639100 0.16572200 0.16336800
0.10196100 0.17117400 0.17082600 0.16849700
0.10588200 0.17595000 0.17590600 0.17359300
0.10980400 0.18071900 0.18096100 0.17865500
0.11372500 0.18547500 0.18598900 0.18369600
0.11764700 0.19019800 0.19098000 0.18870300
0.12156900 0.19490400 0.19594900 0.19368100
0.12549000 0.19961500 0.20091500 0.19863700
0.12941200 0.20433400 0.20588300 0.20359000
0.13333300 0.20903500 0.21084200 0.20852200
0.13725500 0.21371800 0.21579300 0.21342900
0.14117600 0.21839100 0.22074700 0.21831900
0.14509800 0.22306700 0.22570400 0.22320700
0.14902000 0.22772200 0.23063500 0.22807000
0.15294100 0.23233700 0.23555000 0.23289400
0.15686300 0.23692900 0.24045200 0.23770000
0.16078400 0.24149900 0.24533100 0.24248000
0.16470600 0.24605400 0.25020100 0.24723400
0.16862700 0.25062400 0.25506800 0.25198600
0.17254900 0.25520200 0.25990400 0.25673000
0.17647100 0.25976400 0.26471100 0.26145300
0.18039200 0.26430900 0.26949300 0.26615700
0.18431400 0.26883500 0.27424400 0.27083900
0.18823500 0.27333900 0.27897600 0.27549700
0.19215700 0.27783300 0.28370200 0.28014700
0.19607800 0.28233100 0.28842500 0.28479900
0.20000000 0.28683800 0.29312200 0.28944600
0.20392200 0.29133500 0.29779200 0.29406000
0.20784300 0.29579600 0.30244900 0.29864800
0.21176500 0.30022800 0.30710000 0.30322300
0.21568600 0.30464000 0.31174000 0.30779500
0.21960800 0.30903500 0.31635900 0.31235200
0.22352900 0.31340300 0.32095500 0.31688100
0.22745100 0.31775000 0.32552400 0.32138500
0.23137300 0.32208200 0.33006500 0.32586000
0.23529400 0.32640100 0.33458500 0.33030500
0.23921600 0.33071700 0.33908500 0.33473000
0.24313700 0.33504000 0.34354800 0.33913600
0.24705900 0.33936600 0.34797200 0.34351100
0.25098000 0.34367300 0.35236200 0.34785400
0.25490200 0.34796100 0.35672100 0.35216900
0.25882400 0.35222700 0.36104700 0.35645900
0.26274500 0.35647900 0.36535300 0.36072200
0.26666700 0.36072200 0.36962600 0.36497200
0.27058800 0.36496100 0.37386900 0.36920000
0.27451000 0.36918000 0.37809900 0.37340400
0.27843100 0.37337300 0.38232600 0.37759800
0.28235300 0.37755000 0.38655200 0.38179400
0.28627500 0.38172000 0.39079000 0.38599200
0.29019600 0.38588700 0.39505000 0.39020800
0.29411800 0.39006100 0.39933700 0.39445200
0.29803900 0.39425800 0.40363100 0.39872900
0.30196100 0.39848500 0.40788600 0.40302400
0.30588200 0.40273300 0.41210300 0.40728500
0.30980400 0.40695500 0.41629400 0.41150900
0.31372500 0.41113700 0.42046600 0.41570300
0.31764700 0.41528500 0.42461700 0.41988100
0.32156900 0.41940100 0.42874400 0.42404600
0.32549000 0.42348200 0.43285700 0.42820000
0.32941200 0.42752900 0.43695500 0.43234900
0.33333300 0.43155300 0.44103800 0.43648900
0.33725500 0.43556200 0.44511500 0.44062200
0.34117600 0.43955400 0.44917100 0.44475800
0.34509800 0.44353800 0.45319300 0.44887900
0.34902000 0.44750700 0.45719200 0.45297500
0.35294100 0.45143700 0.46117600 0.45705500
0.35686300 0.45533800 0.46514000 0.46112900
0.36078400 0.45922300 0.46907500 0.46519000
0.36470600 0.46309900 0.47298600 0.46922300
0.36862700 0.46695500 0.47686900 0.47322900
0.37254900 0.47079300 0.48073300 0.47720300
0.37647100 0.47461100 0.48457800 0.48114400
0.38039200 0.47840900 0.48840800 0.48505300
0.38431400 0.48219100 0.49222300 0.48893000
0.38823500 0.48595700 0.49602300 0.49277500
0.39215700 0.48970800 0.49980800 0.49658900
0.39607800 0.49344300 0.50359900 0.50037200
0.40000000 0.49716400 0.50738200 0.50414600
0.40392200 0.50089100 0.51115300 0.50790200
0.40784300 0.50463600 0.51491200 0.51163500
0.41176500 0.50837600 0.51866000 0.51534500
0.41568600 0.51210900 0.52239400 0.51903300
0.41960800 0.51583600 0.52611400 0.52269800
0.42352900 0.51955700 0.52981300 0.52634200
0.42745100 0.52327200 0.53349200 0.52996500
0.43137300 0.52697800 0.53714900 0.53357100
0.43529400 0.53067400 0.54078000 0.53716000
0.43921600 0.53436100 0.54439400 0.54072900
0.44313700 0.53803700 0.54799400 0.54429100
0.44705900 0.54170500 0.55156900 0.54784400
0.45098000 0.54537300 0.55512600 0.55138100
0.45490200 0.54903600 0.55867100 0.55490600
0.45882400 0.55268400 0.56221000 0.55842800
0.46274500 0.55632700 0.56574300 0.56195000
0.46666700 0.55997000 0.56927700 0.56547200
0.47058800 0.56361600 0.57281500 0.56900000
0.47451000 0.56727200 0.57634200 0.57253400
0.47843100 0.57094400 0.57985300 0.57605900
0.48235300 0.57462300 0.58335600 0.57956700
0.48627500 0.57828600 0.58685400 0.58306300
0.49019600 0.58193500 0.59034600 0.58655200
0.49411800 0.58557100 0.59382800 0.59003600
0.49803900 0.58919300 0.59729700 0.59350800
0.50196100 0.59280100 0.60075700 0.59696700
0.50588200 0.59639500 0.60421100 0.60041300
0.50980400 0.59997700 0.60765600 0.60385000
0.51372500 0.60355000 0.61109100 0.60727300
0.51764700 0.60710800 0.61451600 0.61068300
0.52156900 0.61064900 0.61793000 0.61408000
0.52549000 0.61417500 0.62132200 0.61746600
0.52941200 0.61768800 0.62469300 0.62082700
0.53333300 0.62118000 0.62805000 0.62416300
0.53725500 0.62464900 0.63140200 0.62748000
0.54117600 0.62809900 0.63474700 0.63078600
0.54509800 0.63154000 0.63808300 0.63408200
0.54902000 0.63497200 0.64141400 0.63736700
0.55294100 0.63839500 0.64474100 0.64064900
0.55686300 0.64181900 0.64807200 0.64392800
0.56078400 0.64524700 0.65141200 0.64721400
0.56470600 0.64868600 0.65477000 0.65051300
0.56862700 0.65214300 0.65815000 0.65383400
0.57254900 0.65562500 0.66155500 0.65718100
0.57647100 0.65913800 0.66498200 0.66055600
0.58039200 0.66268400 0.66842800 0.66396000
0.58431400 0.66626200 0.67184700 0.66739200
0.58823500 0.66985300 0.67523000 0.67081400
0.59215700 0.67340800 0.67857500 0.67420700
0.59607800 0.67692000 0.68188400 0.67757000
0.60000000 0.68039100 0.68516000 0.68090400
0.60392200 0.68382000 0.68841000 0.68420900
0.60784300 0.68721200 0.69164000 0.68748800
0.61176500 0.69057100 0.69485700 0.69074600
0.61568600 0.69390400 0.69806600 0.69398800
0.61960800 0.69721700 0.70126400 0.69722400
0.62352900 0.70051100 0.70445700 0.70045200
0.62745100 0.70378900 0.70764500 0.70368100
0.63137300 0.70705200 0.71082500 0.70691100
0.63529400 0.71030000 0.71399900 0.71013700
0.63921600 0.71353500 0.71717300 0.71335800
0.64313700 0.71676500 0.72034700 0.71657700
0.64705900 0.71999500 0.72351900 0.71979400
0.65098000 0.72322500 0.72669400 0.72300700
0.65490200 0.72646000 0.72986700 0.72622000
0.65882400 0.72970000 0.73303200 0.72943100
0.66274500 0.73293500 0.73619500 0.73263600
0.66666700 0.73616700 0.73935700 0.73583600
0.67058800 0.73939700 0.74251500 0.73903500
0.67451000 0.74262700 0.74567000 0.74223000
0.67843100 0.74585500 0.74882000 0.74542300
0.68235300 0.74908400 0.75196900 0.74861200
0.68627500 0.75231900 0.75511200 0.75180300
0.69019600 0.75555500 0.75825000 0.75499400
0.69411800 0.75879100 0.76138100 0.75818400
0.69803900 0.76202600 0.76450800 0.76137400
0.70196100 0.76525800 0.76763400 0.76456300
0.70588200 0.76848900 0.77076100 0.76775500
0.70980400 0.77171700 0.77388100 0.77095300
0.71372500 0.77493400 0.77699200 0.77414300
0.71764700 0.77814300 0.78009900 0.77732600
0.72156900 0.78134600 0.78320500 0.78050500
0.72549000 0.78454700 0.78630900 0.78368300
0.72941200 0.78774400 0.78941600 0.78686100
0.73333300 0.79094400 0.79253100 0.79004700
0.73725500 0.79415000 0.79566000 0.79324400
0.74117600 0.79736500 0.79880300 0.79645500
0.74509800 0.80058900 0.80195600 0.79967900
0.74902000 0.80380500 0.80509200 0.80290500
0.75294100 0.80698900 0.80820700 0.80610800
0.75686300 0.81014200 0.81130200 0.80928500
0.76078400 0.81326600 0.81437900 0.81243900
0.76470600 0.81636600 0.81744100 0.81557500
0.76862700 0.81944600 0.82049100 0.81869400
0.77254900 0.82251100 0.82353200 0.82180100
0.77647100 0.82556400 0.82656000 0.82489800
0.78039200 0.82860300 0.82957400 0.82798000
0.78431400 0.83162900 0.83257600 0.83104500
0.78823500 0.83464500 0.83556800 0.83409500
0.79215700 0.83766500 0.83855600 0.83713400
0.79607800 0.84069000 0.84154300 0.84016800
0.80000000 0.84372100 0.84452700 0.84319500
0.80392200 0.84675600 0.84750500 0.84621600
0.80784300 0.84980100 0.85048300 0.84923500
0.81176500 0.85286300 0.85346600 0.85226000
0.81568600 0.85594500 0.85645700 0.85529300
0.81960800 0.85904400 0.85945200 0.85833600
0.82352900 0.86214200 0.86244100 0.86137400
0.82745100 0.86523900 0.86542300 0.86440400
0.83137300 0.86833800 0.86840000 0.86742500
0.83529400 0.87144200 0.87137600 0.87044200
0.83921600 0.87454900 0.87435000 0.87345500
0.84313700 0.87766500 0.87732700 0.87646500
0.84705900 0.88079500 0.88031400 0.87948300
0.85098000 0.88393800 0.88331000 0.88250700
0.85490200 0.88709800 0.88632000 0.88554300
0.85882400 0.89027200 0.88934600 0.88859300
0.86274500 0.89344400 0.89237700 0.89165200
0.86666700 0.89661000 0.89540700 0.89471000
0.87058800 0.89977100 0.89844000 0.89776700
0.87451000 0.90292800 0.90147900 0.90082500
0.87843100 0.90608300 0.90452800 0.90388900
0.88235300 0.90923800 0.90758600 0.90696100
0.88627500 0.91238500 0.91065300 0.91004200
0.89019600 0.91551800 0.91372200 0.91312600
0.89411800 0.91863800 0.91679200 0.91621100
0.89803900 0.92174500 0.91986700 0.91930200
0.90196100 0.92483800 0.92294800 0.92240000
0.90588200 0.92790900 0.92602900 0.92550300
0.90980400 0.93096000 0.92910600 0.92860000
0.91372500 0.93399700 0.93218400 0.93169800
0.91764700 0.93701900 0.93526400 0.93479900
0.92156900 0.94002700 0.93834000 0.93789800
0.92549000 0.94302500 0.94141700 0.94099900
0.92941200 0.94601300 0.94449200 0.94409800
0.93333300 0.94899700 0.94756600 0.94719500
0.93725500 0.95197700 0.95063800 0.95029100
0.94117600 0.95495900 0.95370900 0.95338700
0.94509800 0.95794300 0.95678100 0.95648500
0.94902000 0.96093000 0.95985500 0.95958400
0.95294100 0.96392100 0.96293100 0.96268400
0.95686300 0.96691600 0.96600900 0.96578500
0.96078400 0.96991300 0.96908900 0.96888800
0.96470600 0.97291200 0.97217100 0.97199100
0.96862700 0.97591300 0.97525500 0.97509700
0.97254900 0.97891700 0.97834100 0.97820400
0.97647100 0.98192200 0.98142900 0.98131300
