screenprofiles/xps15-9550/Y2XND-LQ156D1 #1 2017-11-30 21-58 1.8 S XYZLUT+MTX/Y2XND-LQ156D1 #1 2017-11-30 21-58 1.8 S XYZLUT+MTX.cal
CAL    

DESCRIPTOR "Argyll Device Calibration Curves"
ORIGINATOR "Argyll dispcal"
CREATED "Thu Nov 30 22:15:45 2017"
DEVICE_CLASS "DISPLAY"
COLOR_REP "RGB"
VIDEO_LUT_CALIBRATION_POSSIBLE "YES"
TV_OUTPUT_ENCODING "NO"
DEVICE_TYPE "n"
NATIVE_TARGET_WHITE ""
TARGET_WHITE_XYZ "359.859000 384.633282 469.281110"
TARGET_GAMMA "1.8"
DEGREE_OF_BLACK_OUTPUT_OFFSET "1.0"
BLACK_POINT_CORRECTION "0.0"
BLACK_NEUTRAL_BLEND_RATE "4.0"
BLACK_POINT_HACK "YES"
QUALITY "high"

BEGIN_ARGYLL_DISPCAL_ARGS
-v2 -d1 -c1 -yn -P0.499507874016,0.497159090909,1.62443845463 -qh -m -t -g1.8 -f1.0 -k0 -A4.0 -b
END_ARGYLL_DISPCAL_ARGS


NUMBER_OF_FIELDS 4
BEGIN_DATA_FORMAT
RGB_I RGB_R RGB_G RGB_B
END_DATA_FORMAT

NUMBER_OF_SETS 256
BEGIN_DATA
0.00000000 0.00000000 0.00000000 0.00000000
0.00392157 0.01238300 0.01130920 0.01104410
0.00784314 0.02351320 0.02162050 0.02115020
0.01176470 0.03357160 0.03106030 0.03043320
0.01568630 0.04271450 0.03973500 0.03899160
0.01960780 0.05110660 0.04776270 0.04692670
0.02352940 0.05891230 0.05527540 0.05433670
0.02745100 0.06626580 0.06239170 0.06132330
0.03137250 0.07326020 0.06920720 0.06798110
0.03529410 0.07995840 0.07579270 0.07437440
0.03921570 0.08641250 0.08220080 0.08056620
0.04313730 0.09263590 0.08845590 0.08660520
0.04705880 0.09866180 0.09456390 0.09251400
0.05098040 0.10451600 0.10054200 0.09831580
0.05490200 0.11021200 0.10641200 0.10402900
0.05882350 0.11577200 0.11216500 0.10966300
0.06274510 0.12120400 0.11781500 0.11523300
0.06666670 0.12651700 0.12336400 0.12074400
0.07058820 0.13173900 0.12883700 0.12619500
0.07450980 0.13687400 0.13425500 0.13161700
0.07843140 0.14192400 0.13961400 0.13700700
0.08235290 0.14692000 0.14492200 0.14235500
0.08627450 0.15186100 0.15019100 0.14767200
0.09019610 0.15675800 0.15542000 0.15295200
0.09411760 0.16159600 0.16059500 0.15819200
0.09803920 0.16639100 0.16572200 0.16336800
0.10196100 0.17117400 0.17082600 0.16849700
0.10588200 0.17595000 0.17590600 0.17359300
0.10980400 0.18071900 0.18096100 0.17865500
0.11372500 0.18547500 0.18598900 0.18369600
0.11764700 0.19019800 0.19098000 0.18870300
0.12156900 0.19490400 0.19594900 0.19368100
0.12549000 0.19961500 0.20091500 0.19863700
0.12941200 0.20433400 0.20588300 0.20359000
0.13333300 0.20903500 0.21084200 0.20852200
0.13725500 0.21371800 0.21579300 0.21342900
0.14117600 0.21839100 0.22074700 0.21831900
0.14509800 0.22306700 0.22570400 0.22320700
0.14902000 0.22772200 0.23063500 0.22807000
0.15294100 0.23233700 0.23555000 0.23289400
0.15686300 0.23692900 0.24045200 0.23770000
0.16078400 0.24149900 0.24533100 0.24248000
0.16470600 0.24605400 0.25020100 0.24723400
0.16862700 0.25062400 0.25506800 0.25198600
0.17254900 0.25520200 0.25990400 0.25673000
0.17647100 0.25976400 0.26471100 0.26145300
0.18039200 0.26430900 0.26949300 0.26615700
0.18431400 0.26883500 0.27424400 0.27083900
0.18823500 0.27333900 0.27897600 0.27549700
0.19215700 0.27783300 0.28370200 0.28014700
0.19607800 0.28233100 0.28842500 0.28479900
0.20000000 0.28683800 0.29312200 0.28944600
0.20392200 0.29133500 0.29779200 0.29406000
0.20784300 0.29579600 0.30244900 0.29864800
0.21176500 0.30022800 0.30710000 0.30322300
0.21568600 0.30464000 0.31174000 0.30779500
0.21960800 0.30903500 0.31635900 0.31235200
0.22352900 0.31340300 0.32095500 0.31688100
0.22745100 0.31775000 0.32552400 0.32138500
0.23137300 0.32208200 0.33006500 0.32586000
0.23529400 0.32640100 0.33458500 0.33030500
0.23921600 0.33071700 0.33908500 0.33473000
0.24313700 0.33504000 0.34354800 0.33913600
0.24705900 0.33936600 0.34797200 0.34351100
0.25098000 0.34367300 0.35236200 0.34785400
0.25490200 0.34796100 0.35672100 0.35216900
0.25882400 0.35222700 0.36104700 0.35645900
0.26274500 0.35647900 0.36535300 0.36072200
0.26666700 0.36072200 0.36962600 0.36497200
0.27058800 0.36496100 0.37386900 0.36920000
0.27451000 0.36918000 0.37809900 0.37340400
0.27843100 0.37337300 0.38232600 0.37759800
0.28235300 0.37755000 0.38655200 0.38179400
0.28627500 0.38172000 0.39079000 0.38599200
0.29019600 0.38588700 0.39505000 0.39020800
0.29411800 0.39006100 0.39933700 0.39445200
0.29803900 0.39425800 0.40363100 0.39872900
0.30196100 0.39848500 0.40788600 0.40302400
0.30588200 0.40273300 0.41210300 0.40728500
0.30980400 0.40695500 0.41629400 0.41150900
0.31372500 0.41113700 0.42046600 0.41570300
0.31764700 0.41528500 0.42461700 0.41988100
0.32156900 0.41940100 0.42874400 0.42404600
0.32549000 0.42348200 0.43285700 0.42820000
0.32941200 0.42752900 0.43695500 0.43234900
0.33333300 0.43155300 0.44103800 0.43648900
0.33725500 0.43556200 0.44511500 0.44062200
0.34117600 0.43955400 0.44917100 0.44475800
0.34509800 0.44353800 0.45319300 0.44887900
0.34902000 0.44750700 0.45719200 0.45297500
0.35294100 0.45143700 0.46117600 0.45705500
0.35686300 0.45533800 0.46514000 0.46112900
0.36078400 0.45922300 0.46907500 0.46519000
0.36470600 0.46309900 0.47298600 0.46922300
0.36862700 0.46695500 0.47686900 0.47322900
0.37254900 0.47079300 0.48073300 0.47720300
0.37647100 0.47461100 0.48457800 0.48114400
0.38039200 0.47840900 0.48840800 0.48505300
0.38431400 0.48219100 0.49222300 0.48893000
0.38823500 0.48595700 0.49602300 0.49277500
0.39215700 0.48970800 0.49980800 0.49658900
0.39607800 0.49344300 0.50359900 0.50037200
0.40000000 0.49716400 0.50738200 0.50414600
0.40392200 0.50089100 0.51115300 0.50790200
0.40784300 0.50463600 0.51491200 0.51163500
0.41176500 0.50837600 0.51866000 0.51534500
0.41568600 0.51210900 0.52239400 0.51903300
0.41960800 0.51583600 0.52611400 0.52269800
0.42352900 0.51955700 0.52981300 0.52634200
0.42745100 0.52327200 0.53349200 0.52996500
0.43137300 0.52697800 0.53714900 0.53357100
0.43529400 0.53067400 0.54078000 0.53716000
0.43921600 0.53436100 0.54439400 0.54072900
0.44313700 0.53803700 0.54799400 0.54429100
0.44705900 0.54170500 0.55156900 0.54784400
0.45098000 0.54537300 0.55512600 0.55138100
0.45490200 0.54903600 0.55867100 0.55490600
0.45882400 0.55268400 0.56221000 0.55842800
0.46274500 0.55632700 0.56574300 0.56195000
0.46666700 0.55997000 0.56927700 0.56547200
0.47058800 0.56361600 0.57281500 0.56900000
0.47451000 0.56727200 0.57634200 0.57253400
0.47843100 0.57094400 0.57985300 0.57605900
0.48235300 0.57462300 0.58335600 0.57956700
0.48627500 0.57828600 0.58685400 0.58306300
0.49019600 0.58193500 0.59034600 0.58655200
0.49411800 0.58557100 0.59382800 0.59003600
0.49803900 0.58919300 0.59729700 0.59350800
0.50196100 0.59280100 0.60075700 0.59696700
0.50588200 0.59639500 0.60421100 0.60041300
0.50980400 0.59997700 0.60765600 0.60385000
0.51372500 0.60355000 0.61109100 0.60727300
0.51764700 0.60710800 0.61451600 0.61068300
0.52156900 0.61064900 0.61793000 0.61408000
0.52549000 0.61417500 0.62132200 0.61746600
0.52941200 0.61768800 0.62469300 0.62082700
0.53333300 0.62118000 0.62805000 0.62416300
0.53725500 0.62464900 0.63140200 0.62748000
0.54117600 0.62809900 0.63474700 0.63078600
0.54509800 0.63154000 0.63808300 0.63408200
0.54902000 0.63497200 0.64141400 0.63736700
0.55294100 0.63839500 0.64474100 0.64064900
0.55686300 0.64181900 0.64807200 0.64392800
0.56078400 0.64524700 0.65141200 0.64721400
0.56470600 0.64868600 0.65477000 0.65051300
0.56862700 0.65214300 0.65815000 0.65383400
0.57254900 0.65562500 0.66155500 0.65718100
0.57647100 0.65913800 0.66498200 0.66055600
0.58039200 0.66268400 0.66842800 0.66396000
0.58431400 0.66626200 0.67184700 0.66739200
0.58823500 0.66985300 0.67523000 0.67081400
0.59215700 0.67340800 0.67857500 0.67420700
0.59607800 0.67692000 0.68188400 0.67757000
0.60000000 0.68039100 0.68516000 0.68090400
0.60392200 0.68382000 0.68841000 0.68420900
0.60784300 0.68721200 0.69164000 0.68748800
0.61176500 0.69057100 0.69485700 0.69074600
0.61568600 0.69390400 0.69806600 0.69398800
0.61960800 0.69721700 0.70126400 0.69722400
0.62352900 0.70051100 0.70445700 0.70045200
0.62745100 0.70378900 0.70764500 0.70368100
0.63137300 0.70705200 0.71082500 0.70691100
0.63529400 0.71030000 0.71399900 0.71013700
0.63921600 0.71353500 0.71717300 0.71335800
0.64313700 0.71676500 0.72034700 0.71657700
0.64705900 0.71999500 0.72351900 0.71979400
0.65098000 0.72322500 0.72669400 0.72300700
0.65490200 0.72646000 0.72986700 0.72622000
0.65882400 0.72970000 0.73303200 0.72943100
0.66274500 0.73293500 0.73619500 0.73263600
0.66666700 0.73616700 0.73935700 0.73583600
0.67058800 0.73939700 0.74251500 0.73903500
0.67451000 0.74262700 0.74567000 0.74223000
0.67843100 0.74585500 0.74882000 0.74542300
0.68235300 0.74908400 0.75196900 0.74861200
0.68627500 0.75231900 0.75511200 0.75180300
0.69019600 0.75555500 0.75825000 0.75499400
0.69411800 0.75879100 0.76138100 0.75818400
0.69803900 0.76202600 0.76450800 0.76137400
0.70196100 0.76525800 0.76763400 0.76456300
0.70588200 0.76848900 0.77076100 0.76775500
0.70980400 0.77171700 0.77388100 0.77095300
0.71372500 0.77493400 0.77699200 0.77414300
0.71764700 0.77814300 0.78009900 0.77732600
0.72156900 0.78134600 0.78320500 0.78050500
0.72549000 0.78454700 0.78630900 0.78368300
0.72941200 0.78774400 0.78941600 0.78686100
0.73333300 0.79094400 0.79253100 0.79004700
0.73725500 0.79415000 0.79566000 0.79324400
0.74117600 0.79736500 0.79880300 0.79645500
0.74509800 0.80058900 0.80195600 0.79967900
0.74902000 0.80380500 0.80509200 0.80290500
0.75294100 0.80698900 0.80820700 0.80610800
0.75686300 0.81014200 0.81130200 0.80928500
0.76078400 0.81326600 0.81437900 0.81243900
0.76470600 0.81636600 0.81744100 0.81557500
0.76862700 0.81944600 0.82049100 0.81869400
0.77254900 0.82251100 0.82353200 0.82180100
0.77647100 0.82556400 0.82656000 0.82489800
0.78039200 0.82860300 0.82957400 0.82798000
0.78431400 0.83162900 0.83257600 0.83104500
0.78823500 0.83464500 0.83556800 0.83409500
0.79215700 0.83766500 0.83855600 0.83713400
0.79607800 0.84069000 0.84154300 0.84016800
0.80000000 0.84372100 0.84452700 0.84319500
0.80392200 0.84675600 0.84750500 0.84621600
0.80784300 0.84980100 0.85048300 0.84923500
0.81176500 0.85286300 0.85346600 0.85226000
0.81568600 0.85594500 0.85645700 0.85529300
0.81960800 0.85904400 0.85945200 0.85833600
0.82352900 0.86214200 0.86244100 0.86137400
0.82745100 0.86523900 0.86542300 0.86440400
0.83137300 0.86833800 0.86840000 0.86742500
0.83529400 0.87144200 0.87137600 0.87044200
0.83921600 0.87454900 0.87435000 0.87345500
0.84313700 0.87766500 0.87732700 0.87646500
0.84705900 0.88079500 0.88031400 0.87948300
0.85098000 0.88393800 0.88331000 0.88250700
0.85490200 0.88709800 0.88632000 0.88554300
0.85882400 0.89027200 0.88934600 0.88859300
0.86274500 0.89344400 0.89237700 0.89165200
0.86666700 0.89661000 0.89540700 0.89471000
0.87058800 0.89977100 0.89844000 0.89776700
0.87451000 0.90292800 0.90147900 0.90082500
0.87843100 0.90608300 0.90452800 0.90388900
0.88235300 0.90923800 0.90758600 0.90696100
0.88627500 0.91238500 0.91065300 0.91004200
0.89019600 0.91551800 0.91372200 0.91312600
0.89411800 0.91863800 0.91679200 0.91621100
0.89803900 0.92174500 0.91986700 0.91930200
0.90196100 0.92483800 0.92294800 0.92240000
0.90588200 0.92790900 0.92602900 0.92550300
0.90980400 0.93096000 0.92910600 0.92860000
0.91372500 0.93399700 0.93218400 0.93169800
0.91764700 0.93701900 0.93526400 0.93479900
0.92156900 0.94002700 0.93834000 0.93789800
0.92549000 0.94302500 0.94141700 0.94099900
0.92941200 0.94601300 0.94449200 0.94409800
0.93333300 0.94899700 0.94756600 0.94719500
0.93725500 0.95197700 0.95063800 0.95029100
0.94117600 0.95495900 0.95370900 0.95338700
0.94509800 0.95794300 0.95678100 0.95648500
0.94902000 0.96093000 0.95985500 0.95958400
0.95294100 0.96392100 0.96293100 0.96268400
0.95686300 0.96691600 0.96600900 0.96578500
0.96078400 0.96991300 0.96908900 0.96888800
0.96470600 0.97291200 0.97217100 0.97199100
0.96862700 0.97591300 0.97525500 0.97509700
0.97254900 0.97891700 0.97834100 0.97820400
0.97647100 0.98192200 0.98142900 0.98131300
0.98039200 0.98493000 0.98451900 0.98442300
0.98431400 0.98794000 0.98761100 0.98753500
0.98823500 0.99095200 0.99070600 0.99064900
0.99215700 0.99396600 0.99380200 0.99376400
0.99607800 0.99698200 0.99690000 0.99688100
1.00000000 1.00000000 1.00000000 1.00000000
END_DATA
CAL    

DESCRIPTOR "Argyll Calibration options and model"
ORIGINATOR "Argyll dispcal"
CREATED "Thu Nov 30 22:15:45 201"

NUMBER_OF_FIELDS 3
BEGIN_DATA_FORMAT
R_P G_P B_P
END_DATA_FORMAT

NUMBER_OF_SETS 32
BEGIN_DATA
0.000564444 0.000521418 0.000644737
0.999436000 0.999479000 0.999355000
1.675826000 1.727648000 2.048875000
0.471448000 0.515574000 0.256101000
0.138339000 0.144025000 0.199356000
0.158671000 0.167701000 0.149250000
0.157016000 0.140774000 0.127154000
0.087042500 0.071809700 0.109740000
0.076357600 0.073650900 0.093095300
0.084401500 0.080046600 0.084392300
0.081109900 0.074089600 0.080202600
0.070759800 0.057819500 0.072035900
0.068312400 0.061800200 0.066711800
0.065146300 0.059364100 0.062748100
0.062913000 0.054370600 0.053791600
0.059781300 0.054896700 0.057089100
0.056667500 0.050291600 0.052472700
0.048699900 0.046775000 0.044622700
0.049827200 0.042837900 0.045928700
0.047623300 0.044848800 0.046147300
0.045897200 0.041385500 0.040171000
0.045942000 0.040565300 0.037106200
0.041908300 0.037090200 0.035735600
0.041994200 0.033746000 0.039592700
0.040556800 0.038705300 0.031368600
0.035219400 0.034762400 0.038188000
0.034597000 0.032572400 0.026777400
0.033590700 0.032383800 0.027490500
0.033041500 0.028043600 0.035552300
0.032364300 0.030504600 0.022019800
0.030594300 0.030776600 0.026844400
0.029100700 0.029066700 0.029234100
END_DATA